X: 423
T: The Lass of Perth
%R: reel
B: "The Compleat Country Dancing-Master" printed by John Walsh, London ca. 1740
S: 6: CCDM2 http://imslp.org/wiki/The_Compleat_Country_Dancing-Master_(Various) V.2 #17 (9)
Z: 2013 John Chambers <jc:trillian.mit.edu>
M: C|
L: 1/8
K: G
% - - - - - - - - - - - - - - - - - - - - - - - - -
|:\
B2AG D2G2 | A2(GF) A2c2 | B2(AG) D2G2 | B3A B2d2 |\
c2e2 B2g2 | ABAG F2A2 | B2d2 (f3e/f/) | g2G2B2d2 :|
|:\
g2(g/a/b) d2g2 | abag f2a2 | g2(g/a/b) B2g2 | B2(AG) B2d2 |\
c2e2 B2g2 | ABAG F2A2 | Bcd2 (f3e/f/) | gdBG B2d2 :|
% - - - - - - - - - - - - - - - - - - - - - - - - -
%%center Each Strain twice.
%%begintext align
%% The 1st Cu. cast off behind 2d Cu. and turn then 3d Cu.
%% and draw in and out with the 2d and 3d Cu. till you come
%% to your own Places .| the 1st Man change Place with the
%% 2d Wo. the 1st Wo. do the same with the 2d Man :| then
%% The 1st and 2d Cu. take hands half round and swing .|
%% then Right and Left quite round into the 2d Cu. Place :|
%%endtext
%%sep 1 8 500

%%sep 1 1 500
%%sep 1 1 500
